X:226
T: WO SOLL ICH MICH HINWENDEN
N: E1365
O: Europa, Mitteleuropa, Deutschland, Bergisches Land; Kleve
R: Staende -, Soldaten - Lied, anti - Kriegs - Lied
M: 4/4
L: 1/16
K: E
E2G2 | B4B4G4e2c2 | B6AGF4
A4 | G4A2F2E4D4 | E8z4
E2G2 | B4B4G4e2c2 | B6AGF4
A4 | G4A2F2E4D4 | E8z4
D2E2 | F4F4G2F2E2F2 | G8z4
E2F2 | G4G4B2A2G2A2 | B8z4
E2G2 | B4B4G4e2c2 | B6AGF4
A4 | G4A2F2E4D4 | E8z4

@@@ Tune index: 4910
